; generated by PrusaSlicer 2.5.0+MacOS-x64 on 2022-11-21 at 07:20:20 UTC


;
;
; 

; external perimeters extrusion width = 0.45mm
; perimeters extrusion width = 0.45mm
; infill extrusion width = 0.45mm
; solid infill extrusion width = 0.45mm
; top infill extrusion width = 0.40mm
; first layer extrusion width = 0.42mm

M73 P0 R33
M73 Q0 S33
M201 X1000 Y1000 Z200 E5000 ; sets maximum accelerations, mm/sec^2
M203 X200 Y200 Z12 E120 ; sets maximum feedrates, mm / sec
M204 P1250 R1250 T1250 ; sets acceleration (P, T) and retract acceleration (R), mm/sec^2
M205 X8.00 Y8.00 Z0.40 E4.50 ; sets the jerk limits, mm/sec
M205 S0 T0 ; sets the minimum extruding and travel feed rate, mm/sec
M107
;TYPE:Custom
M862.3 P "MK3S" ; printer model check
M862.1 P0.4 ; nozzle diameter check
M115 U3.11.0 ; tell printer latest fw version
G90 ; use absolute coordinates
M83 ; extruder relative mode
M104 S240 ; set extruder temp
M140 S85 ; set bed temp
M190 S85 ; wait for bed temp
M109 S240 ; wait for extruder temp
G28 W ; home all without mesh bed level
G80 ; mesh bed leveling

G1 Z0.2 F720
G1 Y-3 F1000 ; go outside print area
G92 E0
G1 X60 E9 F1000 ; intro line
G1 X100 E12.5 F1000 ; intro line

G92 E0
M221 S95

; Don't change E values below. Excessive value can damage the printer.
M907 E430 ; set extruder motor current
G21 ; set units to millimeters
G90 ; use absolute coordinates
M83 ; use relative distances for extrusion
M900 K0.08 ; Filament gcode LA 1.5
M900 K45 ; Filament gcode LA 1.0
M107
;LAYER_CHANGE
;Z:0.2
;HEIGHT:0.2
;BEFORE_LAYER_CHANGE
G92 E0.0
;0.2


G1 E-1 F2100
G1 Z.2 F720
;AFTER_LAYER_CHANGE
;0.2
G1 Z.4
G1 X96.784 Y80.334 F10800
G1 Z.2 F720
G1 E1 F2100
M204 S800
;TYPE:Skirt/Brim
;WIDTH:0.42
G1 F1200
G1 X97.558 Y79.426 E.03742
G1 X98.589 Y78.613 E.04118
G1 X99.647 Y78.074 E.0372
G1 X100.637 Y77.772 E.03246
G1 X101.907 Y77.625 E.04009
G1 X152 Y77.623 E1.57064
G1 X153.307 Y78.015 E.04278
G1 X154.183 Y79.06 E.04278
G1 X154.377 Y80 E.03008
G1 X154.377 Y130 E1.56771
G1 X153.985 Y131.307 E.04278
G1 X152.94 Y132.183 E.04278
G1 X152 Y132.377 E.03008
G1 X102 Y132.377 E1.56772
G1 X100.602 Y132.221 E.04409
G1 X99.474 Y131.854 E.0372
G1 X98.328 Y131.213 E.04118
G1 X97.426 Y130.442 E.0372
G1 X96.787 Y129.672 E.03137
G1 X96.146 Y128.526 E.04118
G1 X95.782 Y127.408 E.03686
G1 X95.625 Y126.093 E.04152
G1 X95.623 Y84 E1.31981
G1 X95.779 Y82.602 E.04409
G1 X96.146 Y81.474 E.0372
G1 X96.754 Y80.386 E.03908
M204 S1000
; printing object led_holder.stl id:0 copy 11
;WIPE_START
G1 F8640
G1 X97.558 Y79.426 E-.28916
G1 X98.589 Y78.613 E-.30325
G1 X99.647 Y78.074 E-.27396
G1 X99.993 Y77.969 E-.08364
;WIPE_END
G1 E-.05 F2100
G1 Z.4 F720
G1 X146.75 Y126.369 F10800
G1 Z.2 F720
G1 E1 F2100
M204 S800
;TYPE:Perimeter
;WIDTH:0.419999
G1 F1200
G1 X146.865 Y126.812 E.01436
G1 X147.028 Y127.157 E.01196
G1 X147.338 Y127.568 E.01614
G1 X147.75 Y127.912 E.01682
G1 X148.188 Y128.135 E.01542
G1 X148.73 Y128.266 E.01749
G1 X149.27 Y128.266 E.01692
G1 X149.812 Y128.135 E.01749
G1 X150.25 Y127.912 E.01542
G1 X150.662 Y127.568 E.01682
G1 X150.99 Y127.116 E.0175
G1 X151.222 Y126.498 E.02072
;WIDTH:0.407221
G1 X151.219 Y126.621 E.00374
;WIDTH:0.419999
G1 X151.213 Y129.213 E.08126
G1 X142.153 Y129.213 E.28407
G1 X141.716 Y129.189 E.01371
G1 X141.018 Y129.056 E.02227
G1 X140.323 Y128.736 E.024
G1 X139.722 Y128.262 E.02399
G1 X139.544 Y128.054 E.00858
G1 X139.145 Y127.467 E.02226
M73 Q1 S33
G1 X138.88 Y126.749 E.024
G1 X138.79 Y125.989 E.02399
G1 X138.829 Y125.498 E.01545
G1 X138.946 Y125.007 E.01581
G1 X139.139 Y124.543 E.01577
G1 X139.402 Y124.113 E.01581
G1 X139.73 Y123.73 E.0158
G1 X140.113 Y123.402 E.0158
M73 P1 R33
G1 X140.543 Y123.139 E.01581
G1 X141.007 Y122.946 E.01577
G1 X141.498 Y122.829 E.01581
G1 X142.027 Y122.787 E.01665
G1 X151.213 Y122.787 E.28802
G1 X151.213 Y125.464 E.08392
G1 X151.135 Y125.188 E.00898
G1 X150.972 Y124.843 E.01196
G1 X150.662 Y124.432 E.01614
G1 X150.25 Y124.088 E.01682
G1 X149.915 Y123.905 E.01196
G1 X149.423 Y123.755 E.01613
G1 X148.918 Y123.717 E.0159
G1 X148.382 Y123.803 E.01701
G1 X147.75 Y124.088 E.02174
G1 X147.338 Y124.432 E.01682
G1 X147.01 Y124.884 E.0175
G1 X146.803 Y125.382 E.01692
G1 X146.717 Y125.933 E.01749
G1 X146.735 Y126.31 E.01184
M204 S1000
G1 X147.106 Y126.197 F10800
M204 S800
;TYPE:External perimeter
G1 F1200
G1 X147.091 Y125.977 E.00691
G1 X147.152 Y125.526 E.01427
G1 X147.358 Y125.028 E.01692
G1 X147.666 Y124.634 E.01566
G1 X148.028 Y124.358 E.01428
G1 X148.526 Y124.152 E.01691
G1 X148.999 Y124.091 E.01496
G1 X149.321 Y124.118 E.01011
G1 X149.744 Y124.241 E.01382
G1 X150.017 Y124.384 E.00965
G1 X150.366 Y124.666 E.01406
G1 X150.636 Y125.014 E.01383
;WIDTH:0.459725
G1 X150.737 Y125.231 E.00827
;WIDTH:0.499451
G1 X150.838 Y125.447 E.00906
;WIDTH:0.539176
G1 X150.939 Y125.663 E.00985
;WIDTH:0.572149
G1 X150.986 Y125.98 E.01409
G1 X150.957 Y126.066 E.004
;WIDTH:0.534112
G1 X150.929 Y126.152 E.00371
;WIDTH:0.496074
G1 X150.901 Y126.239 E.00342
;WIDTH:0.458037
G1 X150.873 Y126.325 E.00314
;WIDTH:0.419999
G1 X150.848 Y126.474 E.00472
G1 X150.642 Y126.972 E.01692
G1 X150.334 Y127.366 E.01566
G1 X149.986 Y127.636 E.01383
G1 X149.71 Y127.772 E.00965
G1 X149.27 Y127.889 E.01427
G1 X148.73 Y127.889 E.01692
G1 X148.256 Y127.759 E.01542
G1 X147.983 Y127.616 E.00965
G1 X147.634 Y127.334 E.01406
G1 X147.364 Y126.986 E.01383
G1 X147.228 Y126.71 E.00965
G1 X147.11 Y126.257 E.01466
M204 S1000
G1 X146.901 Y126.117 F10800
;WIPE_START
G1 F8640
G1 X147.091 Y125.977 E-.06474
G1 X147.152 Y125.526 E-.10509
G1 X147.358 Y125.028 E-.12457
G1 X147.666 Y124.634 E-.11534
G1 X148.028 Y124.358 E-.10519
G1 X148.526 Y124.152 E-.12457
G1 X148.999 Y124.091 E-.11015
G1 X149.321 Y124.118 E-.07448
G1 X149.744 Y124.241 E-.10177
G1 X149.837 Y124.29 E-.02411
;WIPE_END
G1 E-.05 F2100
G1 Z.4 F720
G1 X151.59 Y129.59 F10800
G1 Z.2 F720
G1 E1 F2100
M204 S800
G1 F1200
G1 X142.012 Y129.59 E.30031
G1 X141.438 Y129.545 E.01804
G1 X140.894 Y129.414 E.01755
G1 X140.125 Y129.059 E.02657
G1 X139.46 Y128.535 E.02655
G1 X139.096 Y128.11 E.01754
G1 X138.804 Y127.632 E.01756
G1 X138.511 Y126.837 E.02657
G1 X138.411 Y125.996 E.02655
G1 X138.455 Y125.439 E.01754
G1 X138.587 Y124.89 E.01767
G1 X138.802 Y124.371 E.01763
G1 X139.096 Y123.89 E.01767
G1 X139.462 Y123.462 E.01766
G1 X139.89 Y123.096 E.01766
G1 X140.371 Y122.802 E.01767
G1 X140.89 Y122.587 E.01763
G1 X141.438 Y122.455 E.01767
G1 X142.012 Y122.41 E.01804
G1 X151.59 Y122.41 E.30031
G1 X151.59 Y125.056 E.08297
;WIDTH:0.459725
G1 X151.57 Y125.231 E.0061
;WIDTH:0.499451
G1 X151.55 Y125.406 E.00668
;WIDTH:0.539176
G1 X151.53 Y125.581 E.00726
;WIDTH:0.572149
G1 X151.514 Y125.959 E.01664
G1 X151.533 Y126.061 E.00457
;WIDTH:0.534112
G1 X151.552 Y126.163 E.00424
;WIDTH:0.496074
G1 X151.571 Y126.265 E.00392
;WIDTH:0.458037
G1 X151.59 Y126.368 E.00359
;WIDTH:0.419999
G1 X151.59 Y129.53 E.09916
M204 S1000
;WIPE_START
G1 F8640
G1 X147.476 Y129.556 E-.95
;WIPE_END
G1 E-.05 F2100
G1 Z.4 F720
G1 X151.23 Y126.368 F10800
G1 Z.2 F720
G1 E1 F2100
M204 S800
;TYPE:Perimeter
;WIDTH:0.401428
G1 F1200
G1 X151.222 Y126.498 E.00389
M204 S1000
;WIPE_START
G1 F8640
G1 X151.23 Y126.368 E-.0301
;WIPE_END
G1 E-.9699 F2100
G1 Z.4 F720
G1 X150.332 Y122.9 F10800
G1 Z.2 F720
G1 E1 F2100
M204 S800
;TYPE:Solid infill
;WIDTH:0.422548
G1 F1200
G1 X150.93 Y123.498 E.0267
G1 X150.93 Y124.035 E.01695
G1 X149.965 Y123.07 E.04309
G1 X149.428 Y123.07 E.01695
G1 X150.003 Y123.644 E.02564
G1 X149.896 Y123.595 E.00371
G1 X149.492 Y123.481 E.01325
G1 X149.281 Y123.46 E.0067
G1 X148.891 Y123.07 E.0174
G1 X148.354 Y123.07 E.01695
G1 X148.742 Y123.457 E.01729
G1 X148.45 Y123.49 E.00928
G1 X148.286 Y123.538 E.00539
G1 X147.817 Y123.07 E.02089
G1 X147.281 Y123.07 E.01695
G1 X147.905 Y123.695 E.02789
G1 X147.769 Y123.751 E.00464
G1 X147.555 Y123.881 E.00792
G1 X146.744 Y123.07 E.03623
G1 X146.207 Y123.07 E.01695
G1 X147.255 Y124.118 E.04679
G1 X147.002 Y124.402 E.012
G1 X145.67 Y123.07 E.05947
G1 X145.133 Y123.07 E.01695
G1 X146.781 Y124.718 E.07357
G1 X146.618 Y125.091 E.01287
G1 X144.596 Y123.07 E.09024
G1 X144.059 Y123.07 E.01695
G1 X146.484 Y125.494 E.10823
G1 X146.432 Y125.979 E.01539
G1 X143.522 Y123.07 E.12987
G1 X142.986 Y123.07 E.01695
G1 X146.756 Y126.84 E.16831
M204 S1000
;WIPE_START
G1 F8640
G1 X143.847 Y123.931 E-.95
;WIPE_END
G1 E-.05 F2100
G1 Z.4 F720
G1 X150.761 Y127.624 F10800
G1 Z.2 F720
G1 E1 F2100
M204 S800
G1 F1200
G1 X150.93 Y127.793 E.00754
G1 X150.93 Y128.33 E.01695
G1 X150.598 Y127.998 E.01483
G1 X150.286 Y128.223 E.01214
G1 X150.93 Y128.867 E.02874
G1 X150.93 Y128.93 E.00199
G1 X150.456 Y128.93 E.01495
G1 X149.92 Y128.394 E.02393
G1 X149.502 Y128.513 E.01372
G1 X149.92 Y128.93 E.01862
G1 X149.383 Y128.93 E.01695
G1 X148.997 Y128.544 E.01722
G1 X148.725 Y128.549 E.0086
G1 X148.406 Y128.491 E.01021
G1 X148.846 Y128.93 E.01962
G1 X148.309 Y128.93 E.01695
G1 X142.449 Y123.07 E.26161
G1 X141.921 Y123.079 E.01666
G1 X147.772 Y128.93 E.2612
G1 X147.235 Y128.93 E.01695
G1 X141.439 Y123.134 E.25877
G1 X141.017 Y123.249 E.0138
G1 X146.698 Y128.93 E.25363
G1 X146.161 Y128.93 E.01695
G1 X140.641 Y123.41 E.24643
G1 X140.308 Y123.614 E.01232
G1 X145.625 Y128.93 E.23732
G1 X145.088 Y128.93 E.01695
G1 X140.015 Y123.858 E.22645
G1 X139.755 Y124.135 E.01199
G1 X144.551 Y128.93 E.21407
G1 X144.014 Y128.93 E.01695
G1 X139.53 Y124.446 E.20018
G1 X139.392 Y124.671 E.00835
G1 X139.341 Y124.794 E.00418
G1 X143.477 Y128.93 E.18465
G1 X142.94 Y128.93 E.01695
G1 X139.195 Y125.185 E.16721
G1 X139.102 Y125.629 E.01432
G1 X142.403 Y128.93 E.14738
G1 X141.852 Y128.916 E.01741
G1 X139.095 Y126.158 E.12308
G1 X139.157 Y126.682 E.01665
G1 X139.201 Y126.801 E.004
G1 X141.211 Y128.812 E.08976
G1 X141.111 Y128.788 E.00324
G1 X140.472 Y128.493 E.02223
G1 X139.922 Y128.059 E.02212
G1 X139.228 Y127.365 E.03098
M204 S1000
; stop printing object led_holder.stl id:0 copy 11
; printing object led_holder.stl id:0 copy 3
;WIPE_START
G1 F8640
G1 X139.922 Y128.059 E-.2266
G1 X140.472 Y128.493 E-.16183
G1 X141.111 Y128.788 E-.16259
G1 X141.211 Y128.812 E-.02372
G1 X140.062 Y127.663 E-.37527
;WIPE_END
G1 E-.05 F2100
G1 Z.4 F720
G1 X146.75 Y112.369 F10800
G1 Z.2 F720
G1 E1 F2100
M204 S800
;TYPE:Perimeter
;WIDTH:0.419999
G1 F1200
G1 X146.865 Y112.812 E.01436
G1 X147.028 Y113.157 E.01196
G1 X147.338 Y113.568 E.01614
G1 X147.75 Y113.912 E.01682
G1 X148.188 Y114.135 E.01542
G1 X148.73 Y114.266 E.01749
G1 X149.27 Y114.266 E.01692
G1 X149.812 Y114.135 E.01749
G1 X150.25 Y113.912 E.01542
G1 X150.662 Y113.568 E.01682
G1 X150.99 Y113.116 E.0175
G1 X151.222 Y112.498 E.02072
;WIDTH:0.407221
G1 X151.219 Y112.621 E.00374
;WIDTH:0.419999
G1 X151.213 Y115.213 E.08126
G1 X142.153 Y115.213 E.28407
G1 X141.716 Y115.189 E.01371
G1 X141.018 Y115.056 E.02227
G1 X140.323 Y114.736 E.024
G1 X139.722 Y114.262 E.02399
G1 X139.544 Y114.054 E.00858
G1 X139.145 Y113.467 E.02226
G1 X138.88 Y112.749 E.024
G1 X138.79 Y111.989 E.02399
G1 X138.829 Y111.498 E.01545
G1 X138.946 Y111.007 E.01581
G1 X139.139 Y110.543 E.01577
G1 X139.402 Y110.113 E.01581
G1 X139.73 Y109.73 E.0158
G1 X140.113 Y109.402 E.0158
G1 X140.543 Y109.139 E.01581
G1 X141.007 Y108.946 E.01577
G1 X141.498 Y108.829 E.01581
G1 X142.027 Y108.787 E.01665
G1 X151.213 Y108.787 E.28802
G1 X151.213 Y111.464 E.08392
G1 X151.135 Y111.188 E.00898
G1 X150.972 Y110.843 E.01196
G1 X150.662 Y110.432 E.01614
G1 X150.25 Y110.088 E.01682
G1 X149.915 Y109.905 E.01196
G1 X149.423 Y109.755 E.01613
G1 X148.918 Y109.717 E.0159
G1 X148.382 Y109.803 E.01701
G1 X147.75 Y110.088 E.02174
G1 X147.338 Y110.432 E.01682
G1 X147.01 Y110.884 E.0175
G1 X146.803 Y111.382 E.01692
G1 X146.717 Y111.933 E.01749
G1 X146.735 Y112.31 E.01184
M204 S1000
G1 X147.106 Y112.197 F10800
M204 S800
;TYPE:External perimeter
G1 F1200
G1 X147.091 Y111.977 E.00691
G1 X147.152 Y111.526 E.01427
G1 X147.358 Y111.028 E.01692
G1 X147.666 Y110.634 E.01566
G1 X148.028 Y110.358 E.01428
G1 X148.526 Y110.152 E.01691
G1 X148.999 Y110.091 E.01496
G1 X149.321 Y110.118 E.01011
G1 X149.744 Y110.241 E.01382
G1 X150.017 Y110.384 E.00965
G1 X150.366 Y110.666 E.01406
G1 X150.636 Y111.014 E.01383
;WIDTH:0.459725
G1 X150.737 Y111.231 E.00827
;WIDTH:0.499451
G1 X150.838 Y111.447 E.00906
;WIDTH:0.539176
G1 X150.939 Y111.663 E.00985
;WIDTH:0.572149
G1 X150.986 Y111.98 E.01409
G1 X150.957 Y112.066 E.004
;WIDTH:0.534112
G1 X150.929 Y112.152 E.00371
;WIDTH:0.496074
G1 X150.901 Y112.239 E.00342
;WIDTH:0.458037
G1 X150.873 Y112.325 E.00314
;WIDTH:0.419999
G1 X150.848 Y112.474 E.00472
G1 X150.642 Y112.972 E.01692
G1 X150.334 Y113.366 E.01566
G1 X149.986 Y113.636 E.01383
G1 X149.71 Y113.772 E.00965
G1 X149.27 Y113.889 E.01427
G1 X148.73 Y113.889 E.01692
G1 X148.256 Y113.759 E.01542
G1 X147.983 Y113.616 E.00965
M73 P1 R32
G1 X147.634 Y113.334 E.01406
G1 X147.364 Y112.986 E.01383
G1 X147.228 Y112.71 E.00965
G1 X147.11 Y112.257 E.01466
M204 S1000
G1 X146.901 Y112.117 F10800
;WIPE_START
G1 F8640
G1 X147.091 Y111.977 E-.06474
G1 X147.152 Y111.526 E-.10509
G1 X147.358 Y111.028 E-.12457
G1 X147.666 Y110.634 E-.11534
G1 X148.028 Y110.358 E-.10519
G1 X148.526 Y110.152 E-.12457
G1 X148.999 Y110.091 E-.11015
G1 X149.321 Y110.118 E-.07448
G1 X149.744 Y110.241 E-.10177
G1 X149.837 Y110.29 E-.02411
;WIPE_END
G1 E-.05 F2100
G1 Z.4 F720
G1 X151.59 Y115.59 F10800
G1 Z.2 F720
G1 E1 F2100
M204 S800
G1 F1200
G1 X142.012 Y115.59 E.30031
G1 X141.438 Y115.545 E.01804
G1 X140.894 Y115.414 E.01755
G1 X140.125 Y115.059 E.02657
G1 X139.46 Y114.535 E.02655
G1 X139.096 Y114.11 E.01754
G1 X138.804 Y113.632 E.01756
G1 X138.511 Y112.837 E.02657
G1 X138.411 Y111.996 E.02655
G1 X138.455 Y111.439 E.01754
G1 X138.587 Y110.89 E.01767
G1 X138.802 Y110.371 E.01763
G1 X139.096 Y109.89 E.01767
G1 X139.462 Y109.462 E.01766
G1 X139.89 Y109.096 E.01766
G1 X140.371 Y108.802 E.01767
G1 X140.89 Y108.587 E.01763
G1 X141.438 Y108.455 E.01767
G1 X142.012 Y108.41 E.01804
G1 X151.59 Y108.41 E.30031
G1 X151.59 Y111.056 E.08297
;WIDTH:0.459725
G1 X151.57 Y111.231 E.0061
;WIDTH:0.499451
G1 X151.55 Y111.406 E.00668
;WIDTH:0.539176
G1 X151.53 Y111.581 E.00726
;WIDTH:0.572149
G1 X151.514 Y111.959 E.01664
G1 X151.533 Y112.061 E.00457
;WIDTH:0.534112
G1 X151.552 Y112.163 E.00424
;WIDTH:0.496074
G1 X151.571 Y112.265 E.00392
;WIDTH:0.458037
G1 X151.59 Y112.368 E.00359
;WIDTH:0.419999
G1 X151.59 Y115.53 E.09916
M204 S1000
;WIPE_START
G1 F8640
G1 X147.476 Y115.556 E-.95
;WIPE_END
G1 E-.05 F2100
G1 Z.4 F720
G1 X151.23 Y112.368 F10800
G1 Z.2 F720
G1 E1 F2100
M204 S800
;TYPE:Perimeter
;WIDTH:0.401428
G1 F1200
G1 X151.222 Y112.498 E.00389
M204 S1000
;WIPE_START
G1 F8640
G1 X151.23 Y112.368 E-.0301
;WIPE_END
G1 E-.9699 F2100
G1 Z.4 F720
G1 X150.332 Y108.9 F10800
G1 Z.2 F720
G1 E1 F2100
M204 S800
;TYPE:Solid infill
;WIDTH:0.422548
G1 F1200
G1 X150.93 Y109.498 E.0267
G1 X150.93 Y110.035 E.01695
G1 X149.965 Y109.07 E.04309
G1 X149.428 Y109.07 E.01695
G1 X150.003 Y109.644 E.02564
G1 X149.896 Y109.595 E.00371
G1 X149.492 Y109.481 E.01325
G1 X149.281 Y109.46 E.0067
G1 X148.891 Y109.07 E.0174
G1 X148.354 Y109.07 E.01695
G1 X148.742 Y109.457 E.01729
G1 X148.45 Y109.49 E.00928
G1 X148.286 Y109.538 E.00539
G1 X147.817 Y109.07 E.02089
G1 X147.281 Y109.07 E.01695
G1 X147.905 Y109.695 E.02789
M73 Q2 S33
G1 X147.769 Y109.751 E.00464
G1 X147.555 Y109.881 E.00792
G1 X146.744 Y109.07 E.03623
G1 X146.207 Y109.07 E.01695
M73 P2 R32
G1 X147.255 Y110.118 E.04679
G1 X147.002 Y110.402 E.012
G1 X145.67 Y109.07 E.05947
G1 X145.133 Y109.07 E.01695
G1 X146.781 Y110.718 E.07357
G1 X146.618 Y111.091 E.01287
G1 X144.596 Y109.07 E.09024
G1 X144.059 Y109.07 E.01695
G1 X146.484 Y111.494 E.10823
G1 X146.432 Y111.979 E.01539
G1 X143.522 Y109.07 E.12987
G1 X142.986 Y109.07 E.01695
G1 X146.756 Y112.84 E.16831
M204 S1000
;WIPE_START
G1 F8640
G1 X143.847 Y109.931 E-.95
;WIPE_END
G1 E-.05 F2100
G1 Z.4 F720
G1 X150.761 Y113.624 F10800
G1 Z.2 F720
G1 E1 F2100
M204 S800
G1 F1200
G1 X150.93 Y113.793 E.00754
G1 X150.93 Y114.33 E.01695
G1 X150.598 Y113.998 E.01483
G1 X150.286 Y114.223 E.01214
G1 X150.93 Y114.867 E.02874
G1 X150.93 Y114.93 E.00199
G1 X150.456 Y114.93 E.01495
G1 X149.92 Y114.394 E.02393
G1 X149.502 Y114.513 E.01372
