; generated by PrusaSlicer 2.5.0+MacOS-x64 on 2022-11-20 at 08:59:32 UTC


;
;
; 

; external perimeters extrusion width = 0.45mm
; perimeters extrusion width = 0.45mm
; infill extrusion width = 0.45mm
; solid infill extrusion width = 0.45mm
; top infill extrusion width = 0.40mm
; support material extrusion width = 0.35mm
; first layer extrusion width = 0.42mm

M73 P0 R42
M73 Q0 S42
M201 X1000 Y1000 Z200 E5000 ; sets maximum accelerations, mm/sec^2
M203 X200 Y200 Z12 E120 ; sets maximum feedrates, mm / sec
M204 P1250 R1250 T1250 ; sets acceleration (P, T) and retract acceleration (R), mm/sec^2
M205 X8.00 Y8.00 Z0.40 E4.50 ; sets the jerk limits, mm/sec
M205 S0 T0 ; sets the minimum extruding and travel feed rate, mm/sec
M107
;TYPE:Custom
M862.3 P "MK3S" ; printer model check
M862.1 P0.4 ; nozzle diameter check
M115 U3.11.0 ; tell printer latest fw version
G90 ; use absolute coordinates
M83 ; extruder relative mode
M104 S240 ; set extruder temp
M140 S85 ; set bed temp
M190 S85 ; wait for bed temp
M109 S240 ; wait for extruder temp
G28 W ; home all without mesh bed level
G80 ; mesh bed leveling

G1 Z0.2 F720
G1 Y-3 F1000 ; go outside print area
G92 E0
G1 X60 E9 F1000 ; intro line
G1 X100 E12.5 F1000 ; intro line

G92 E0
M221 S95

; Don't change E values below. Excessive value can damage the printer.
M907 E430 ; set extruder motor current
G21 ; set units to millimeters
G90 ; use absolute coordinates
M83 ; use relative distances for extrusion
M900 K0.08 ; Filament gcode LA 1.5
M900 K45 ; Filament gcode LA 1.0
M107
;LAYER_CHANGE
;Z:0.2
;HEIGHT:0.2
;BEFORE_LAYER_CHANGE
G92 E0.0
;0.2


M73 P0 R41
G1 E-1 F2100
G1 Z.2 F720
;AFTER_LAYER_CHANGE
;0.2
; printing object speaker.stl id:0 copy 0
G1 Z.4
G1 X99.74 Y98.926 F10800
G1 Z.2 F720
G1 E1 F2100
M204 S800
;TYPE:Support material
;WIDTH:0.42
G1 F1200
G1 X99.341 Y100.927 E.06396
G1 X99.101 Y102.952 E.06396
G1 X99.02 Y105.009 E.06455
G1 X99.099 Y107.029 E.06337
G1 X99.338 Y109.055 E.06396
G1 X99.736 Y111.056 E.06396
G1 X100.224 Y112.79 E.05649
G1 X86.71 Y112.79 E.42372
G1 X86.71 Y97.21 E.4885
G1 X100.224 Y97.21 E.42372
G1 X99.755 Y98.871 E.05413
M204 S1000
;WIPE_START
G1 F8640
G1 X100.224 Y97.21 E-.39861
G1 X97.836 Y97.21 E-.55139
;WIPE_END
G1 E-.05 F2100
G1 Z.4 F720
G1 X99.442 Y112.62 F10800
G1 Z.2 F720
G1 E1 F2100
M204 S800
G1 F1200
G1 X99.442 Y111.269 E.04237
G1 X99.023 Y109.215 E.06573
G1 X99.023 Y112.451 E.10146
G1 X98.604 Y112.451 E.01314
G1 X98.604 Y97.549 E.46722
G1 X99.023 Y97.549 E.01314
G1 X99.023 Y100.785 E.10146
G1 X99.442 Y98.731 E.06573
G1 X99.442 Y97.38 E.04237
M204 S1000
G1 X98.185 Y112.62 F10800
M204 S800
G1 F1200
G1 X98.185 Y97.549 E.47254
G1 X97.766 Y97.549 E.01314
G1 X97.766 Y112.451 E.46722
G1 X97.348 Y112.451 E.01314
G1 X97.348 Y97.549 E.46722
G1 X96.929 Y97.549 E.01314
G1 X96.929 Y112.451 E.46722
G1 X96.51 Y112.451 E.01314
G1 X96.51 Y97.549 E.46722
G1 X96.091 Y97.549 E.01314
G1 X96.091 Y112.451 E.46722
G1 X95.672 Y112.451 E.01314
G1 X95.672 Y97.549 E.46722
G1 X95.253 Y97.549 E.01314
G1 X95.253 Y112.451 E.46722
G1 X94.834 Y112.451 E.01314
G1 X94.834 Y97.549 E.46722
G1 X94.415 Y97.549 E.01314
G1 X94.415 Y112.451 E.46722
G1 X93.996 Y112.451 E.01314
G1 X93.996 Y97.549 E.46722
G1 X93.577 Y97.549 E.01314
G1 X93.577 Y112.451 E.46722
G1 X93.158 Y112.451 E.01314
G1 X93.158 Y97.549 E.46722
G1 X92.739 Y97.549 E.01314
G1 X92.739 Y112.451 E.46722
G1 X92.32 Y112.451 E.01314
G1 X92.32 Y97.549 E.46722
G1 X91.901 Y97.549 E.01314
G1 X91.901 Y112.451 E.46722
G1 X91.482 Y112.451 E.01314
G1 X91.482 Y97.549 E.46722
G1 X91.063 Y97.549 E.01314
M73 P1 R41
M73 Q1 S42
G1 X91.063 Y112.451 E.46722
G1 X90.644 Y112.451 E.01314
G1 X90.644 Y97.549 E.46722
G1 X90.225 Y97.549 E.01314
M73 Q1 S41
G1 X90.225 Y112.451 E.46722
G1 X89.806 Y112.451 E.01314
G1 X89.806 Y97.549 E.46722
G1 X89.387 Y97.549 E.01314
G1 X89.387 Y112.451 E.46722
G1 X88.968 Y112.451 E.01314
G1 X88.968 Y97.549 E.46722
G1 X88.549 Y97.549 E.01314
G1 X88.549 Y112.451 E.46722
G1 X88.13 Y112.451 E.01314
G1 X88.13 Y97.549 E.46722
G1 X87.711 Y97.549 E.01314
G1 X87.711 Y112.451 E.46722
G1 X87.292 Y112.451 E.01314
G1 X87.292 Y97.38 E.47254
M204 S1000
;WIPE_START
G1 F8640
G1 X87.292 Y101.494 E-.95
;WIPE_END
G1 E-.05 F2100
G1 Z.4 F720
G1 X163.29 Y112.79 F10800
G1 Z.2 F720
G1 E1 F2100
M204 S800
G1 F1200
G1 X149.776 Y112.79 E.42372
G1 X150.264 Y111.056 E.05649
G1 X150.662 Y109.055 E.06396
G1 X150.899 Y107.048 E.06337
G1 X150.98 Y105.009 E.06396
G1 X150.901 Y102.971 E.06396
G1 X150.662 Y100.945 E.06396
G1 X150.264 Y98.944 E.06396
G1 X149.776 Y97.21 E.05649
G1 X163.29 Y97.21 E.42372
G1 X163.29 Y112.733 E.48673
M204 S1000
G1 X162.708 Y112.62 F10800
M204 S800
G1 F1200
G1 X162.708 Y97.549 E.47254
G1 X162.289 Y97.549 E.01314
G1 X162.289 Y112.451 E.46722
G1 X161.87 Y112.451 E.01314
G1 X161.87 Y97.549 E.46722
G1 X161.451 Y97.549 E.01314
G1 X161.451 Y112.451 E.46722
G1 X161.032 Y112.451 E.01314
G1 X161.032 Y97.549 E.46722
G1 X160.613 Y97.549 E.01314
G1 X160.613 Y112.451 E.46722
G1 X160.194 Y112.451 E.01314
G1 X160.194 Y97.549 E.46722
G1 X159.775 Y97.549 E.01314
G1 X159.775 Y112.451 E.46722
G1 X159.356 Y112.451 E.01314
G1 X159.356 Y97.549 E.46722
G1 X158.937 Y97.549 E.01314
G1 X158.937 Y112.451 E.46722
G1 X158.518 Y112.451 E.01314
G1 X158.518 Y97.549 E.46722
G1 X158.099 Y97.549 E.01314
G1 X158.099 Y112.451 E.46722
G1 X157.68 Y112.451 E.01314
G1 X157.68 Y97.549 E.46722
G1 X157.261 Y97.549 E.01314
G1 X157.261 Y112.451 E.46722
G1 X156.842 Y112.451 E.01314
G1 X156.842 Y97.549 E.46722
G1 X156.423 Y97.549 E.01314
G1 X156.423 Y112.451 E.46722
G1 X156.004 Y112.451 E.01314
G1 X156.004 Y97.549 E.46722
G1 X155.585 Y97.549 E.01314
M73 P2 R41
M73 Q2 S41
G1 X155.585 Y112.451 E.46722
G1 X155.166 Y112.451 E.01314
G1 X155.166 Y97.549 E.46722
G1 X154.747 Y97.549 E.01314
G1 X154.747 Y112.451 E.46722
G1 X154.328 Y112.451 E.01314
G1 X154.328 Y97.549 E.46722
G1 X153.909 Y97.549 E.01314
G1 X153.909 Y112.451 E.46722
G1 X153.49 Y112.451 E.01314
G1 X153.49 Y97.549 E.46722
G1 X153.071 Y97.549 E.01314
G1 X153.071 Y112.451 E.46722
G1 X152.652 Y112.451 E.01314
G1 X152.652 Y97.549 E.46722
G1 X152.234 Y97.549 E.01314
G1 X152.234 Y112.451 E.46722
G1 X151.815 Y112.451 E.01314
G1 X151.815 Y97.549 E.46722
G1 X151.396 Y97.549 E.01314
G1 X151.396 Y112.451 E.46722
G1 X150.977 Y112.451 E.01314
G1 X150.977 Y109.215 E.10146
G1 X150.558 Y111.269 E.06573
G1 X150.558 Y112.62 E.04237
M204 S1000
G1 X150.977 Y102.163 F10800
M204 S800
G1 F1200
G1 X150.977 Y97.549 E.14464
G1 X150.558 Y97.549 E.01314
G1 X150.558 Y99.549 E.06269
M204 S1000
;WIPE_START
G1 F8640
G1 X150.558 Y97.549 E-.46163
G1 X150.977 Y97.549 E-.09674
G1 X150.977 Y99.245 E-.39162
;WIPE_END
G1 E-.05 F2100
G1 Z.4 F720
G1 X149.01 Y99.162 F10800
G1 Z.2 F720
G1 E1 F2100
M204 S800
;TYPE:Perimeter
;WIDTH:0.419999
G1 F1200
G1 X149.406 Y101.125 E.06279
G1 X149.636 Y103.061 E.06113
G1 X149.712 Y105 E.06084
G1 X149.636 Y106.939 E.06084
G1 X149.408 Y108.866 E.06084
G1 X149.03 Y110.769 E.06084
G1 X148.503 Y112.637 E.06084
G1 X147.831 Y114.457 E.06084
G1 X147.019 Y116.219 E.06084
G1 X146.071 Y117.912 E.06084
M73 P2 R40
G1 X144.993 Y119.526 E.06084
G1 X143.791 Y121.049 E.06084
G1 X142.474 Y122.474 E.06084
G1 X141.049 Y123.791 E.06084
G1 X139.526 Y124.993 E.06084
G1 X137.912 Y126.071 E.06084
G1 X136.219 Y127.019 E.06084
G1 X134.457 Y127.831 E.06084
G1 X132.637 Y128.503 E.06083
G1 X130.755 Y129.032 E.06129
G1 X128.866 Y129.408 E.06039
G1 X126.939 Y129.636 E.06084
G1 X125 Y129.712 E.06084
G1 X123.061 Y129.636 E.06084
G1 X121.134 Y129.408 E.06084
G1 X119.231 Y129.03 E.06084
G1 X117.363 Y128.503 E.06084
G1 X115.543 Y127.831 E.06084
G1 X113.781 Y127.019 E.06084
G1 X112.088 Y126.071 E.06083
G1 X110.463 Y124.984 E.06129
G1 X108.951 Y123.791 E.06039
G1 X107.526 Y122.474 E.06084
G1 X106.209 Y121.049 E.06084
G1 X105.016 Y119.537 E.06039
G1 X103.929 Y117.912 E.06129
G1 X102.981 Y116.219 E.06083
G1 X102.169 Y114.457 E.06084
G1 X101.497 Y112.637 E.06084
G1 X100.97 Y110.769 E.06084
G1 X100.592 Y108.866 E.06084
G1 X100.364 Y106.939 E.06084
G1 X100.288 Y105 E.06084
G1 X100.364 Y103.061 E.06084
G1 X100.592 Y101.134 E.06084
G1 X100.97 Y99.231 E.06084
G1 X101.497 Y97.363 E.06084
G1 X102.169 Y95.543 E.06084
G1 X102.981 Y93.781 E.06084
G1 X103.929 Y92.088 E.06084
G1 X105.007 Y90.474 E.06084
G1 X106.209 Y88.951 E.06084
G1 X107.526 Y87.526 E.06084
G1 X108.951 Y86.209 E.06084
G1 X110.474 Y85.007 E.06084
G1 X112.088 Y83.929 E.06084
G1 X113.781 Y82.981 E.06084
G1 X115.543 Y82.169 E.06084
G1 X117.377 Y81.493 E.06129
G1 X119.231 Y80.97 E.06039
G1 X121.134 Y80.592 E.06084
G1 X123.061 Y80.364 E.06083
G1 X125.014 Y80.288 E.06129
G1 X126.939 Y80.364 E.06039
G1 X128.866 Y80.592 E.06084
G1 X130.769 Y80.97 E.06084
G1 X132.637 Y81.497 E.06084
G1 X134.457 Y82.169 E.06084
G1 X136.219 Y82.981 E.06084
G1 X137.912 Y83.929 E.06083
G1 X139.537 Y85.016 E.06129
G1 X141.049 Y86.209 E.06039
G1 X142.474 Y87.526 E.06084
G1 X143.791 Y88.951 E.06084
G1 X144.984 Y90.463 E.06039
G1 X146.071 Y92.088 E.06129
G1 X147.019 Y93.781 E.06083
G1 X147.831 Y95.543 E.06084
G1 X148.503 Y97.363 E.06084
G1 X148.994 Y99.104 E.05671
M204 S1000
G1 X149.373 Y99.06 F10800
M204 S800
;TYPE:External perimeter
G1 F1200
G1 X149.779 Y101.066 E.06418
G1 X150.012 Y103.032 E.06206
G1 X150.09 Y105 E.06177
G1 X150.012 Y106.969 E.06177
G1 X149.781 Y108.925 E.06177
G1 X149.396 Y110.857 E.06177
G1 X148.862 Y112.753 E.06177
G1 X148.18 Y114.601 E.06177
G1 X147.355 Y116.391 E.06177
G1 X146.392 Y118.109 E.06177
G1 X145.298 Y119.747 E.06177
G1 X144.078 Y121.294 E.06177
G1 X142.741 Y122.741 E.06177
G1 X141.294 Y124.078 E.06177
G1 X139.747 Y125.298 E.06177
G1 X138.109 Y126.392 E.06177
G1 X136.391 Y127.355 E.06177
G1 X134.601 Y128.18 E.06177
G1 X132.753 Y128.862 E.06177
G1 X130.843 Y129.399 E.06222
G1 X128.925 Y129.781 E.06132
G1 X126.969 Y130.012 E.06177
G1 X125 Y130.09 E.06177
G1 X123.031 Y130.012 E.06177
G1 X121.075 Y129.781 E.06177
G1 X119.143 Y129.396 E.06177
G1 X117.247 Y128.862 E.06177
G1 X115.399 Y128.18 E.06177
G1 X113.61 Y127.355 E.06177
G1 X111.891 Y126.393 E.06177
G1 X110.241 Y125.289 E.06222
G1 X108.706 Y124.078 E.06132
G1 X107.259 Y122.741 E.06177
G1 X105.922 Y121.294 E.06177
G1 X104.711 Y119.759 E.06132
G1 X103.607 Y118.109 E.06222
G1 X102.645 Y116.39 E.06177
G1 X101.82 Y114.601 E.06177
G1 X101.138 Y112.753 E.06177
G1 X100.604 Y110.857 E.06177
G1 X100.219 Y108.925 E.06177
G1 X99.988 Y106.969 E.06177
G1 X99.91 Y105 E.06177
G1 X99.988 Y103.031 E.06177
G1 X100.219 Y101.075 E.06177
G1 X100.604 Y99.143 E.06177
G1 X101.138 Y97.247 E.06177
G1 X101.82 Y95.399 E.06177
G1 X102.645 Y93.61 E.06177
G1 X103.608 Y91.891 E.06177
G1 X104.702 Y90.253 E.06177
G1 X105.922 Y88.706 E.06177
G1 X107.259 Y87.259 E.06177
G1 X108.706 Y85.922 E.06177
G1 X110.253 Y84.702 E.06177
G1 X111.891 Y83.608 E.06177
G1 X113.609 Y82.645 E.06177
G1 X115.399 Y81.82 E.06177
G1 X117.261 Y81.134 E.06222
G1 X119.143 Y80.604 E.06132
G1 X121.075 Y80.219 E.06177
G1 X123.031 Y79.988 E.06177
G1 X125.014 Y79.911 E.06222
G1 X126.969 Y79.988 E.06132
G1 X128.925 Y80.219 E.06177
G1 X130.857 Y80.604 E.06177
G1 X132.753 Y81.138 E.06177
G1 X134.601 Y81.82 E.06177
G1 X136.39 Y82.645 E.06177
G1 X138.109 Y83.607 E.06177
G1 X139.759 Y84.711 E.06222
G1 X141.294 Y85.922 E.06132
G1 X142.741 Y87.259 E.06177
G1 X144.078 Y88.706 E.06177
M73 P3 R40
G1 X145.289 Y90.241 E.06132
M73 Q3 S41
G1 X146.393 Y91.891 E.06222
G1 X147.355 Y93.61 E.06177
G1 X148.18 Y95.399 E.06177
G1 X148.862 Y97.247 E.06177
G1 X149.357 Y99.002 E.05718
M204 S1000
G1 X149.084 Y99.336 F10800
;WIPE_START
G1 F8640
G1 X149.779 Y101.066 E-.48647
G1 X150.012 Y103.032 E-.45704
G1 X150.013 Y103.06 E-.00649
;WIPE_END
G1 E-.05 F2100
G1 Z.4 F720
G1 X103.962 Y101.281 F10800
G1 Z.2 F720
G1 E1 F2100
M204 S800
;TYPE:Perimeter
G1 F1200
G1 X103.852 Y101.16 E.00511
G1 X103.779 Y100.556 E.01909
G1 X103.83 Y99.897 E.02073
G1 X104.168 Y98.695 E.03914
G1 X104.408 Y98.134 E.01912
G1 X104.737 Y97.672 E.0178
G1 X104.838 Y97.589 E.00409
G1 X104.952 Y97.559 E.00372
G1 X104.892 Y97.457 E.00372
G1 X104.888 Y96.898 E.0175
G1 X105.039 Y96.335 E.01829
G1 X105.412 Y95.514 E.02826
G1 X105.762 Y94.936 E.02118
G1 X106.003 Y94.72 E.01017
G1 X106.302 Y94.669 E.00949
G1 X106.575 Y94.817 E.00975
G1 X106.617 Y94.272 E.01714
G1 X106.708 Y94.098 E.00614
G1 X106.9 Y94.003 E.00673
G1 X106.758 Y93.843 E.00673
G1 X106.758 Y93.543 E.00942
G1 X106.909 Y93.023 E.01697
G1 X107.338 Y92.251 E.02768
G1 X108.42 Y90.868 E.05505
G1 X109.053 Y90.244 E.02788
G1 X109.322 Y90.098 E.0096
G1 X109.828 Y90.113 E.01587
G1 X110.309 Y90.309 E.01627
G1 X110.113 Y89.828 E.01627
G1 X110.098 Y89.322 E.01587
G1 X110.244 Y89.053 E.0096
G1 X110.868 Y88.42 E.02788
G1 X112.177 Y87.388 E.05226
G1 X113.016 Y86.907 E.03032
G1 X113.564 Y86.754 E.01783
G1 X113.841 Y86.758 E.0087
G1 X114.003 Y86.901 E.00676
G1 X114.098 Y86.708 E.00676
G1 X114.278 Y86.616 E.00634
G1 X114.825 Y86.594 E.01715
G1 X114.673 Y86.328 E.00959
G1 X114.693 Y86.074 E.00798
G1 X114.875 Y85.806 E.01016
G1 X115.455 Y85.444 E.02142
G1 X116.266 Y85.065 E.02807
G1 X116.794 Y84.898 E.01738
G1 X117.347 Y84.88 E.01735
G1 X117.555 Y84.943 E.00679
G1 X117.656 Y84.752 E.00679
G1 X118.134 Y84.408 E.01848
G1 X118.634 Y84.189 E.0171
G1 X119.482 Y83.937 E.02773
G1 X120.034 Y83.804 E.01781
G1 X120.632 Y83.771 E.01876
G1 X121.189 Y83.863 E.01771
G1 X121.277 Y83.949 E.00386
G1 X121.324 Y83.835 E.00386
G1 X121.608 Y83.665 E.01038
G1 X121.993 Y83.502 E.01312
G1 X122.456 Y83.389 E.01492
G1 X123.262 Y83.284 E.0255
G1 X124.255 Y83.31 E.03112
G1 X124.743 Y83.443 E.01586
G1 X124.926 Y83.521 E.00623
G1 X125 Y83.655 E.0048
G1 X125.073 Y83.521 E.00481
G1 X125.667 Y83.331 E.01954
G1 X126.643 Y83.279 E.03064
G1 X127.545 Y83.389 E.02847
G1 X128.073 Y83.523 E.01708
G1 X128.549 Y83.738 E.01639
G1 X128.654 Y83.813 E.00404
G1 X128.719 Y83.962 E.00511
G1 X128.84 Y83.852 E.00511
G1 X129.444 Y83.779 E.01909
G1 X129.991 Y83.811 E.01719
G1 X130.499 Y83.932 E.01637
G1 X131.311 Y84.169 E.02651
G1 X131.828 Y84.384 E.01757
G1 X132.257 Y84.679 E.01632
G1 X132.411 Y84.838 E.00693
G1 X132.441 Y84.952 E.00372
G1 X132.543 Y84.892 E.00372
G1 X133.102 Y84.888 E.0175
G1 X133.665 Y85.039 E.01829
G1 X134.486 Y85.412 E.02827
G1 X135.064 Y85.763 E.02119
G1 X135.279 Y86.004 E.01013
G1 X135.33 Y86.301 E.00947
G1 X135.182 Y86.575 E.00975
G1 X135.728 Y86.617 E.01715
G1 X135.901 Y86.707 E.00614
G1 X135.997 Y86.9 E.00674
G1 X136.157 Y86.758 E.00674
G1 X136.457 Y86.758 E.00941
G1 X137.025 Y86.933 E.01862
G1 X137.749 Y87.338 E.02601
G1 X139.132 Y88.42 E.05505
G1 X139.756 Y89.053 E.02788
G1 X139.902 Y89.322 E.0096
G1 X139.887 Y89.828 E.01587
G1 X139.691 Y90.309 E.01627
G1 X140.172 Y90.113 E.01627
G1 X140.678 Y90.098 E.01587
G1 X140.947 Y90.244 E.0096
G1 X141.58 Y90.868 E.02788
G1 X142.612 Y92.177 E.05226
G1 X143.067 Y92.975 E.0288
G1 X143.242 Y93.543 E.01862
G1 X143.242 Y93.843 E.00943
G1 X143.098 Y94.004 E.00676
G1 X143.292 Y94.098 E.00676
G1 X143.385 Y94.278 E.00636
G1 X143.406 Y94.825 E.01714
G1 X143.672 Y94.673 E.00959
G1 X143.925 Y94.693 E.00796
G1 X144.043 Y94.745 E.00402
G1 X144.237 Y94.936 E.00855
G1 X144.556 Y95.455 E.01908
G1 X144.935 Y96.266 E.02805
G1 X145.103 Y96.808 E.0178
G1 X145.12 Y97.327 E.01628
G1 X145.109 Y97.453 E.00396
G1 X145.05 Y97.558 E.00378
G1 X145.166 Y97.591 E.00378
G1 X145.392 Y97.845 E.01065
G1 X145.651 Y98.242 E.01486
G1 X145.833 Y98.696 E.01534
G1 X146.17 Y99.897 E.03912
G1 X146.222 Y100.46 E.01774
G1 X146.175 Y101.035 E.01807
G1 X146.148 Y101.161 E.00407
G1 X146.036 Y101.281 E.00512
G1 X146.186 Y101.345 E.00512
G1 X146.466 Y101.902 E.01954
G1 X146.598 Y102.389 E.01581
G1 X146.716 Y103.262 E.02762
G1 X146.688 Y104.204 E.02956
G1 X146.548 Y104.773 E.01836
G1 X146.498 Y104.895 E.00415
G1 X146.321 Y105 E.00644
G1 X146.498 Y105.105 E.00644
G1 X146.669 Y105.667 E.01844
G1 X146.721 Y106.643 E.03064
G1 X146.611 Y107.545 E.02847
G1 X146.477 Y108.073 E.01708
G1 X146.262 Y108.549 E.01639
G1 X146.187 Y108.654 E.00404
G1 X146.038 Y108.719 E.00511
G1 X146.148 Y108.84 E.00511
G1 X146.221 Y109.444 E.01909
G1 X146.189 Y109.991 E.01719
G1 X146.068 Y110.499 E.01637
G1 X145.831 Y111.311 E.02651
G1 X145.616 Y111.828 E.01757
G1 X145.321 Y112.257 E.01632
